!!!OTL: ES LIEGEN DREI JUNGGESELLEN
!!!ARE: Europa, Mitteleuropa, Deutschland
!!!SCT: Z0029
!!!YEM: Copyright 1995, estate of Helmut Schaffrath.
**kern
*ICvox
*Ivox
*M2/4
*k[b-e-]
*B-:
{8f
=1
8b-
16b-
16b-
8b-
8dd
=2
8b-
8f
8d}
{8f
=3
8.dd
16b-
16dd
16b-
16cc
16a
=4
4b-
8r}
{16b-
16cc
=5
16dd
16dd
16dd
16dd
16ee-
16dd
16cc
16b-
=6
8.cc
16dd
8cc}
{16f
16a
=7
8cc
16cc
16cc
16dd
16cc
16b-
16a
=8
8b-
8f
8d}
{8f
=9
8dd
16dd
16b-
16dd
16cc
16cc
16a
=10
4b-
8r}
==
!!!AGN: Sagen - Lied, Romanze, Tod
!!!ONB: ESAC (Essen Associative Code) Database: ZUCCAL
!!!AMT: simple duple
!!!AIN: vox
!!!EED: Helmut Schaffrath
!!!EEV: 1.0
*-
